icons/folder-list.svg

<svg xmlns="http://www.w3.org/2000/svg" width="24" height="24" viewBox="0 0 24 24">
  <path d="M11,4 L13,6 L20,6 C21.1045695,6 22,6.8954305 22,8 L22,18 C22,19.1045695 21.1045695,20 20,20 L4,20 C2.8954305,20 2,19.1045695 2,18 L2,6 C2,4.8954305 2.8954305,4 4,4 L11,4 Z M16,14 L8,14 L7.88337887,14.0067277 C7.38604019,14.0644928 7,14.4871642 7,15 C7,15.5522847 7.44771525,16 8,16 L8,16 L16,16 L16.1166211,15.9932723 C16.6139598,15.9355072 17,15.5128358 17,15 C17,14.4477153 16.5522847,14 16,14 L16,14 Z M16,10 L8,10 L7.88337887,10.0067277 C7.38604019,10.0644928 7,10.4871642 7,11 C7,11.5522847 7.44771525,12 8,12 L8,12 L16,12 L16.1166211,11.9932723 C16.6139598,11.9355072 17,11.5128358 17,11 C17,10.4477153 16.5522847,10 16,10 L16,10 Z"/>
</svg>

<svg xmlns="http://www.w3.org/2000/svg" viewBox="0 0 24 24">
  <path d="m11 4 2 2h7a2 2 0 0 1 2 2v10a2 2 0 0 1-2 2H4a2 2 0 0 1-2-2V6c0-1.1.9-2 2-2h7zm5 10H7.88A1 1 0 0 0 8 16h8.12a1 1 0 0 0-.12-2zm0-4H7.88A1 1 0 0 0 8 12h8.12a1 1 0 0 0-.12-2z"/>
</svg>
